Komodo/mimetypes/scalable/text-x-sql.svg

<?xml version="1.0" encoding="UTF-8" standalone="no"?>
<!-- Created with Inkscape (http://www.inkscape.org/) -->
<svg id="svg11037" xmlns:rdf="http://www.w3.org/1999/02/22-rdf-syntax-ns#" xmlns="http://www.w3.org/2000/svg" height="96" width="96" version="1.1" xmlns:cc="http://creativecommons.org/ns#" xmlns:xlink="http://www.w3.org/1999/xlink" xmlns:dc="http://purl.org/dc/elements/1.1/">
 <defs id="defs11039">
  <linearGradient id="linearGradient3236">
   <stop id="stop3238" style="stop-color:#818181" offset="0"/>
   <stop id="stop3242" style="stop-color:#f9f9f9" offset=".2"/>
   <stop id="stop3240" style="stop-color:#dcdcdc;stop-opacity:0" offset="1"/>
  </linearGradient>
  <radialGradient id="radialGradient3213" gradientUnits="userSpaceOnUse" cy="90" cx="90" gradientTransform="matrix(0 -1.085 2 0 -90 187.65)" r="42">
   <stop id="stop3702" style="stop-color:#b4b4b4" offset="0"/>
   <stop id="stop3704" style="stop-color:#dcdcdc" offset="1"/>
  </radialGradient>
  <linearGradient id="linearGradient3215" y2="73" xlink:href="#linearGradient3236" gradientUnits="userSpaceOnUse" x2="24" y1="73" x1="6"/>
  <linearGradient id="linearGradient3217" y2="73" xlink:href="#linearGradient3236" gradientUnits="userSpaceOnUse" x2="24" gradientTransform="matrix(-1,0,0,1,96,0)" y1="73" x1="6"/>
  <linearGradient id="linearGradient3219" y2="5.8332" gradientUnits="userSpaceOnUse" x2="38.748" y1="32.03" x1="38.748">
   <stop id="stop3201" style="stop-color:#dcdcdc" offset="0"/>
   <stop id="stop3203" style="stop-color:#fafafa" offset="1"/>
  </linearGradient>
  <linearGradient id="linearGradient3221" y2="14" gradientUnits="userSpaceOnUse" x2="88" y1="34" x1="24">
   <stop id="stop3739" style="stop-color:#fff" offset="0"/>
   <stop id="stop3741" style="stop-color:#fff;stop-opacity:0" offset="1"/>
  </linearGradient>
  <clipPath id="clipPath3223" clipPathUnits="userSpaceOnUse">
   <rect id="rect3225" style="fill:url(#linearGradient3227)" rx="22.826" ry="22.826" height="84" width="84" y="6" x="6"/>
  </clipPath>
  <linearGradient id="linearGradient3227" y2="1046.1" gradientUnits="userSpaceOnUse" x2="48" gradientTransform="matrix(1.05 0 0 1.05 -2.4 -1006.6)" y1="962.62" x1="48">
   <stop id="stop3797" style="stop-color:#13a6fd" offset="0"/>
   <stop id="stop3799" style="stop-color:#2975b6" offset="1"/>
  </linearGradient>
  <clipPath id="clipPath3009" clipPathUnits="userSpaceOnUse">
   <path id="path3011" style="opacity:.15;fill:#fff" d="m-2 956.36h-96v33.562l96 25.687v-59.25z"/>
  </clipPath>
 </defs>
 <metadata id="metadata11042">
  <rdf:RDF>
   <cc:Work rdf:about="">
    <dc:format>image/svg+xml</dc:format>
    <dc:type rdf:resource="http://purl.org/dc/dcmitype/StillImage"/>
    <dc:title/>
   </cc:Work>
  </rdf:RDF>
 </metadata>
 <g id="layer1" transform="translate(0 -956.36)">
  <g id="g3156" clip-path="url(#clipPath3223)" transform="matrix(1.0952 0 0 1.0952 -4.5714 951.79)">
   <rect id="rect2419" style="fill:url(#radialGradient3213)" rx="6" ry="6" height="84" width="84" y="6" x="6"/>
   <path id="rect3222" style="fill:url(#linearGradient3215)" d="m6 26v58c0 3.324 2.676 6 6 6h12v-64h-18z"/>
   <path id="path3244" style="fill:url(#linearGradient3217)" d="m90 26v58c0 3.324-2.676 6-6 6h-12v-64h18z"/>
   <path id="rect2412" style="opacity:.15" d="m6 82v2c0 3.324 2.676 6 6 6h72c3.324 0 6-2.676 6-6v-2c0 3.324-2.676 6-6 6h-72c-3.324 0-6-2.676-6-6z"/>
   <g id="g3687" transform="translate(0,-2)">
    <path id="path3187" style="opacity:.8;fill:#fff" d="m6 58v2c0 3.324 2.676 6 6 6h72c3.324 0 6-2.676 6-6v-2c0 3.324-2.676 6-6 6h-72c-3.324 0-6-2.676-6-6z"/>
    <path id="path3189" style="opacity:.15" d="m6 56v2c0 3.324 2.676 6 6 6h72c3.324 0 6-2.676 6-6v-2c0 3.324-2.676 6-6 6h-72c-3.324 0-6-2.676-6-6z"/>
   </g>
   <g id="g3691">
    <path id="path3191" style="opacity:.8;fill:#fff" d="m6 42v2c0 3.324 2.676 6 6 6h72c3.324 0 6-2.676 6-6v-2c0 3.324-2.676 6-6 6h-72c-3.324 0-6-2.676-6-6z"/>
    <path id="path3193" style="opacity:.15" d="m6 40v2c0 3.324 2.676 6 6 6h72c3.324 0 6-2.676 6-6v-2c0 3.324-2.676 6-6 6h-72c-3.324 0-6-2.676-6-6z"/>
   </g>
   <path id="rect3195" style="fill:url(#linearGradient3219)" d="m12 6h72c3.324 0 6 2.676 6 6v16c0 3.324-2.676 6-6 6h-72c-3.324 0-6-2.676-6-6v-16c0-3.324 2.676-6 6-6z"/>
   <path id="rect3207" style="fill:url(#linearGradient3221)" d="m12 6c-3.324 0-6 2.676-6 6v16c0 3.324 2.676 6 6 6h72c3.324 0 6-2.676 6-6v-16c0-3.324-2.676-6-6-6h-72zm0 2h72c2.2458 0 4 1.7542 4 4v16c0 2.2458-1.7542 4-4 4h-72c-2.2458 0-4-1.754-4-4v-16c0-2.2458 1.7542-4 4-4z"/>
   <g id="g3695" transform="translate(0,12)">
    <path id="path3697" style="opacity:.8;fill:#fff" d="m6 58v2c0 3.324 2.676 6 6 6h72c3.324 0 6-2.676 6-6v-2c0 3.324-2.676 6-6 6h-72c-3.324 0-6-2.676-6-6z"/>
    <path id="path3699" style="opacity:.15" d="m6 56v2c0 3.324 2.676 6 6 6h72c3.324 0 6-2.676 6-6v-2c0 3.324-2.676 6-6 6h-72c-3.324 0-6-2.676-6-6z"/>
   </g>
  </g>
  <rect id="rect3003" style="opacity:.15;fill:#fff" transform="translate(98 3.8281e-7)" clip-path="url(#clipPath3009)" rx="25" ry="25" height="92" width="92" y="958.36" x="-96"/>
 </g>
</svg>

<?xml version="1.0" encoding="UTF-8" standalone="no"?>
<!-- Created with Inkscape (http://www.inkscape.org/) -->

<svg
   xmlns:dc="http://purl.org/dc/elements/1.1/"
   xmlns:cc="http://creativecommons.org/ns#"
   xmlns:rdf="http://www.w3.org/1999/02/22-rdf-syntax-ns#"
   xmlns:svg="http://www.w3.org/2000/svg"
   xmlns="http://www.w3.org/2000/svg"
   xmlns:xlink="http://www.w3.org/1999/xlink"
   xmlns:sodipodi="http://sodipodi.sourceforge.net/DTD/sodipodi-0.dtd"
   xmlns:inkscape="http://www.inkscape.org/namespaces/inkscape"
   width="96"
   height="96"
   id="svg11037"
   version="1.1"
   inkscape:version="0.48.3.1 r9886"
   sodipodi:docname="text-x-sql.svg">
  <defs
     id="defs11039">
    <linearGradient
       y2="1046.1001"
       x2="47.999954"
       y1="962.62189"
       x1="47.999954"
       gradientTransform="matrix(1.15,0,0,1.15,-7.1999462,-150.65291)"
       gradientUnits="userSpaceOnUse"
       id="linearGradient3886"
       xlink:href="#linearGradient3795"
       inkscape:collect="always" />
    <linearGradient
       id="linearGradient3795">
      <stop
         style="stop-color:#13a6fd;stop-opacity:1;"
         offset="0"
         id="stop3797" />
      <stop
         style="stop-color:#2975b6;stop-opacity:1;"
         offset="1"
         id="stop3799" />
    </linearGradient>
    <linearGradient
       y2="1046.1001"
       x2="47.999954"
       y1="962.62189"
       x1="47.999954"
       gradientTransform="matrix(1.15,0,0,1.15,-7.1999462,-150.65292)"
       gradientUnits="userSpaceOnUse"
       id="linearGradient11642"
       xlink:href="#linearGradient3795"
       inkscape:collect="always" />
    <radialGradient
       cx="90"
       cy="90"
       r="42"
       fx="90"
       fy="90"
       id="radialGradient3197"
       xlink:href="#linearGradient3700"
       gradientUnits="userSpaceOnUse"
       gradientTransform="matrix(0,-1.085034,2,0,-90,187.65306)" />
    <linearGradient
       id="linearGradient3700">
      <stop
         id="stop3702"
         style="stop-color:#b4b4b4;stop-opacity:1"
         offset="0" />
      <stop
         id="stop3704"
         style="stop-color:#dcdcdc;stop-opacity:1"
         offset="1" />
    </linearGradient>
    <linearGradient
       x1="6"
       y1="73"
       x2="24"
       y2="73"
       id="linearGradient3234"
       xlink:href="#linearGradient3236"
       gradientUnits="userSpaceOnUse" />
    <linearGradient
       id="linearGradient3236">
      <stop
         id="stop3238"
         style="stop-color:#818181;stop-opacity:1"
         offset="0" />
      <stop
         id="stop3242"
         style="stop-color:#f9f9f9;stop-opacity:1"
         offset="0.2" />
      <stop
         id="stop3240"
         style="stop-color:#dcdcdc;stop-opacity:0"
         offset="1" />
    </linearGradient>
    <linearGradient
       x1="6"
       y1="73"
       x2="24"
       y2="73"
       id="linearGradient3246"
       xlink:href="#linearGradient3236"
       gradientUnits="userSpaceOnUse"
       gradientTransform="matrix(-1,0,0,1,96,0)" />
    <linearGradient
       id="linearGradient3193">
      <stop
         id="stop3195"
         style="stop-color:#818181;stop-opacity:1"
         offset="0" />
      <stop
         id="stop3197"
         style="stop-color:#f9f9f9;stop-opacity:1"
         offset="0.2" />
      <stop
         id="stop3199"
         style="stop-color:#dcdcdc;stop-opacity:0"
         offset="1" />
    </linearGradient>
    <linearGradient
       x1="38.748035"
       y1="32.029934"
       x2="38.748035"
       y2="5.8331571"
       id="linearGradient3685"
       xlink:href="#linearGradient3199"
       gradientUnits="userSpaceOnUse" />
    <linearGradient
       id="linearGradient3199">
      <stop
         id="stop3201"
         style="stop-color:#dcdcdc;stop-opacity:1"
         offset="0" />
      <stop
         id="stop3203"
         style="stop-color:#fafafa;stop-opacity:1"
         offset="1" />
    </linearGradient>
    <linearGradient
       x1="24"
       y1="34"
       x2="88"
       y2="14"
       id="linearGradient3220"
       xlink:href="#linearGradient3737"
       gradientUnits="userSpaceOnUse" />
    <linearGradient
       id="linearGradient3737">
      <stop
         id="stop3739"
         style="stop-color:#ffffff;stop-opacity:1"
         offset="0" />
      <stop
         id="stop3741"
         style="stop-color:#ffffff;stop-opacity:0"
         offset="1" />
    </linearGradient>
    <radialGradient
       inkscape:collect="always"
       xlink:href="#linearGradient3700"
       id="radialGradient3213"
       gradientUnits="userSpaceOnUse"
       gradientTransform="matrix(0,-1.085034,2,0,-90,187.65306)"
       cx="90"
       cy="90"
       fx="90"
       fy="90"
       r="42" />
    <linearGradient
       inkscape:collect="always"
       xlink:href="#linearGradient3236"
       id="linearGradient3215"
       gradientUnits="userSpaceOnUse"
       x1="6"
       y1="73"
       x2="24"
       y2="73" />
    <linearGradient
       inkscape:collect="always"
       xlink:href="#linearGradient3236"
       id="linearGradient3217"
       gradientUnits="userSpaceOnUse"
       gradientTransform="matrix(-1,0,0,1,96,0)"
       x1="6"
       y1="73"
       x2="24"
       y2="73" />
    <linearGradient
       inkscape:collect="always"
       xlink:href="#linearGradient3199"
       id="linearGradient3219"
       gradientUnits="userSpaceOnUse"
       x1="38.748035"
       y1="32.029934"
       x2="38.748035"
       y2="5.8331571" />
    <linearGradient
       inkscape:collect="always"
       xlink:href="#linearGradient3737"
       id="linearGradient3221"
       gradientUnits="userSpaceOnUse"
       x1="24"
       y1="34"
       x2="88"
       y2="14" />
    <clipPath
       clipPathUnits="userSpaceOnUse"
       id="clipPath3223">
      <rect
         x="6"
         y="6.0000038"
         width="84"
         height="84"
         style="fill:url(#linearGradient3227);fill-opacity:1"
         id="rect3225"
         rx="22.826086"
         ry="22.826086" />
    </clipPath>
    <linearGradient
       inkscape:collect="always"
       xlink:href="#linearGradient3795"
       id="linearGradient3227"
       gradientUnits="userSpaceOnUse"
       gradientTransform="matrix(1.05,0,0,1.05,-2.3999508,-1006.579)"
       x1="47.999954"
       y1="962.62189"
       x2="47.999954"
       y2="1046.1001" />
    <clipPath
       clipPathUnits="userSpaceOnUse"
       id="clipPath3009">
      <path
         id="path3011"
         d="m -2,956.36218 -96,0 0,33.5624 96,25.68742 0,-59.24982 z"
         style="opacity:0.15;fill:#ffffff;fill-opacity:1;stroke:none"
         inkscape:connector-curvature="0" />
    </clipPath>
  </defs>
  <sodipodi:namedview
     id="base"
     pagecolor="#ffffff"
     bordercolor="#666666"
     borderopacity="1.0"
     inkscape:pageopacity="0.0"
     inkscape:pageshadow="2"
     inkscape:zoom="3.959798"
     inkscape:cx="37.957448"
     inkscape:cy="59.964634"
     inkscape:document-units="px"
     inkscape:current-layer="layer1"
     showgrid="false"
     inkscape:window-width="1280"
     inkscape:window-height="750"
     inkscape:window-x="0"
     inkscape:window-y="22"
     inkscape:window-maximized="1"
     showguides="true"
     inkscape:guide-bbox="true">
    <sodipodi:guide
       orientation="0,1"
       position="-24.748737,0"
       id="guide11064" />
    <sodipodi:guide
       orientation="0,1"
       position="-23.233509,96"
       id="guide11066" />
    <sodipodi:guide
       orientation="1,0"
       position="0,54.800776"
       id="guide11068" />
    <sodipodi:guide
       orientation="1,0"
       position="96,51.012704"
       id="guide11070" />
    <sodipodi:guide
       orientation="0,1"
       position="-18.94036,48"
       id="guide11072" />
    <sodipodi:guide
       orientation="1,0"
       position="48,79.296975"
       id="guide11074" />
    <sodipodi:guide
       orientation="1,0"
       position="2,75.508903"
       id="guide11076" />
    <sodipodi:guide
       orientation="0,1"
       position="-77.27667,2"
       id="guide11078" />
    <sodipodi:guide
       orientation="1,0"
       position="94,77.781746"
       id="guide11080" />
    <sodipodi:guide
       orientation="0,1"
       position="-65.912454,94"
       id="guide11082" />
  </sodipodi:namedview>
  <metadata
     id="metadata11042">
    <rdf:RDF>
      <cc:Work
         rdf:about="">
        <dc:format>image/svg+xml</dc:format>
        <dc:type
           rdf:resource="http://purl.org/dc/dcmitype/StillImage" />
        <dc:title />
      </cc:Work>
    </rdf:RDF>
  </metadata>
  <g
     inkscape:label="Layer 1"
     inkscape:groupmode="layer"
     id="layer1"
     transform="translate(0,-956.36218)">
    <g
       transform="matrix(1.0952381,0,0,1.0952381,-4.5714286,951.79075)"
       style="display:inline"
       id="g3156"
       clip-path="url(#clipPath3223)">
      <rect
         width="84"
         height="84"
         rx="6"
         ry="6"
         x="6"
         y="6"
         id="rect2419"
         style="fill:url(#radialGradient3213);fill-opacity:1;fill-rule:nonzero;stroke:none" />
      <path
         d="m 6,26 0,58 c 0,3.324 2.676,6 6,6 l 12,0 0,-64 -18,0 z"
         inkscape:connector-curvature="0"
         id="rect3222"
         style="fill:url(#linearGradient3215);fill-opacity:1;fill-rule:nonzero;stroke:none" />
      <path
         d="m 90,26 0,58 c 0,3.324 -2.676,6 -6,6 l -12,0 0,-64 18,0 z"
         inkscape:connector-curvature="0"
         id="path3244"
         style="fill:url(#linearGradient3217);fill-opacity:1;fill-rule:nonzero;stroke:none" />
      <path
         d="m 6,82 0,2 c 0,3.324 2.676,6 6,6 l 72,0 c 3.324,0 6,-2.676 6,-6 l 0,-2 c 0,3.324 -2.676,6 -6,6 L 12,88 C 8.676,88 6,85.324 6,82 z"
         inkscape:connector-curvature="0"
         id="rect2412"
         style="opacity:0.15;fill:#000000;fill-opacity:1;fill-rule:nonzero;stroke:none" />
      <g
         transform="translate(0,-2)"
         id="g3687">
        <path
           d="m 6,58 0,2 c 0,3.324 2.676,6 6,6 l 72,0 c 3.324,0 6,-2.676 6,-6 l 0,-2 c 0,3.324 -2.676,6 -6,6 L 12,64 C 8.676,64 6,61.324 6,58 z"
           inkscape:connector-curvature="0"
           id="path3187"
           style="opacity:0.8;fill:#ffffff;fill-opacity:1;fill-rule:nonzero;stroke:none" />
        <path
           d="m 6,56 0,2 c 0,3.324 2.676,6 6,6 l 72,0 c 3.324,0 6,-2.676 6,-6 l 0,-2 c 0,3.324 -2.676,6 -6,6 L 12,62 C 8.676,62 6,59.324 6,56 z"
           inkscape:connector-curvature="0"
           id="path3189"
           style="opacity:0.15;fill:#000000;fill-opacity:1;fill-rule:nonzero;stroke:none" />
      </g>
      <g
         id="g3691">
        <path
           d="m 6,42 0,2 c 0,3.324 2.676,6 6,6 l 72,0 c 3.324,0 6,-2.676 6,-6 l 0,-2 c 0,3.324 -2.676,6 -6,6 L 12,48 C 8.676,48 6,45.324 6,42 z"
           inkscape:connector-curvature="0"
           id="path3191"
           style="opacity:0.8;fill:#ffffff;fill-opacity:1;fill-rule:nonzero;stroke:none" />
        <path
           d="m 6,40 0,2 c 0,3.324 2.676,6 6,6 l 72,0 c 3.324,0 6,-2.676 6,-6 l 0,-2 c 0,3.324 -2.676,6 -6,6 L 12,46 C 8.676,46 6,43.324 6,40 z"
           inkscape:connector-curvature="0"
           id="path3193"
           style="opacity:0.15;fill:#000000;fill-opacity:1;fill-rule:nonzero;stroke:none" />
      </g>
      <path
         d="m 12,6 72,0 c 3.324,0 6,2.676 6,6 l 0,16 c 0,3.324 -2.676,6 -6,6 L 12,34 C 8.676,34 6,31.324 6,28 L 6,12 C 6,8.676 8.676,6 12,6 z"
         inkscape:connector-curvature="0"
         id="rect3195"
         style="fill:url(#linearGradient3219);fill-opacity:1;fill-rule:nonzero;stroke:none" />
      <path
         d="M 12,6 C 8.676,6 6,8.676 6,12 l 0,16 c 0,3.324 2.676,6 6,6 l 72,0 c 3.324,0 6,-2.676 6,-6 L 90,12 C 90,8.676 87.324,6 84,6 L 12,6 z m 0,2 72,0 c 2.245802,0 4,1.7541975 4,4 l 0,16 c 0,2.245802 -1.754198,4 -4,4 L 12,32 C 9.7541975,32 8,30.245802 8,28 L 8,12 C 8,9.7541975 9.7541975,8 12,8 z"
         inkscape:connector-curvature="0"
         id="rect3207"
         style="fill:url(#linearGradient3221);fill-opacity:1;fill-rule:nonzero;stroke:none" />
      <g
         transform="translate(0,12)"
         id="g3695">
        <path
           d="m 6,58 0,2 c 0,3.324 2.676,6 6,6 l 72,0 c 3.324,0 6,-2.676 6,-6 l 0,-2 c 0,3.324 -2.676,6 -6,6 L 12,64 C 8.676,64 6,61.324 6,58 z"
           inkscape:connector-curvature="0"
           id="path3697"
           style="opacity:0.8;fill:#ffffff;fill-opacity:1;fill-rule:nonzero;stroke:none" />
        <path
           d="m 6,56 0,2 c 0,3.324 2.676,6 6,6 l 72,0 c 3.324,0 6,-2.676 6,-6 l 0,-2 c 0,3.324 -2.676,6 -6,6 L 12,62 C 8.676,62 6,59.324 6,56 z"
           inkscape:connector-curvature="0"
           id="path3699"
           style="opacity:0.15;fill:#000000;fill-opacity:1;fill-rule:nonzero;stroke:none" />
      </g>
    </g>
    <rect
       ry="25"
       rx="25"
       id="rect3003"
       style="opacity:0.15;fill:#ffffff;fill-opacity:1"
       height="92"
       width="92"
       y="958.36218"
       x="-96"
       clip-path="url(#clipPath3009)"
       transform="translate(98,3.8281269e-7)" />
  </g>
</svg>
